X: 15022
T: George Peoples'
R: reel
M: 4/4
K: Ddorian
A,DDE FEDB,|CDEG cded|cAGE CDEG|AcGE EFEC|
A,DDE FEDB,|CDEC G,CEC|_B,2DB, CDEG|1 AcGE D_B,DD:|2 AcGE DEFG||
|:Add^c dfe=c|dcAB cAGE|F2AF EGcd|efed cAGc|
Add^c dfe=c|dcAB cAGg|efec dcAd|cAGE DEFG:|
|:Ad^ce defg|ad~d2 c’dbd|addA cdef|ecee FcEc|
Ddd^c dfe=c|dcAB cAGg|efed dcAd|1 cAGE DEFG:|2 cAGE D_B,DD||

